assets/images/ideal.svg

<svg width="36" height="22" viewBox="0 0 65 40" fill="none" xmlns="http://www.w3.org/2000/svg">
<g clip-path="url(#clip0)">
<path d="M59.3332 0H5.99984C3.05432 0 0.666504 2.44208 0.666504 5.45455V34.5455C0.666504 37.5579 3.05432 40 5.99984 40H59.3332C62.2787 40 64.6665 37.5579 64.6665 34.5455V5.45455C64.6665 2.44208 62.2787 0 59.3332 0Z" fill="#CC0066"/>
<g clip-path="url(#clip1)">
<path d="M15.6665 7.22387V32.7761C15.6665 33.9993 16.6672 35 17.8904 35H33.1572C44.6991 35 49.7028 28.5397 49.7028 19.9666C49.7028 11.4381 44.6991 5 33.1572 5H17.8904C16.6672 5 15.6665 6.00074 15.6665 7.22387Z" fill="white"/>
<path d="M25.8862 11.2709V30.1516H34.1034C41.5645 30.1516 44.8002 25.9374 44.8002 19.9774C44.8002 14.2732 41.5645 9.84766 34.1034 9.84766H27.3095C26.52 9.84766 25.8862 10.4926 25.8862 11.2709Z" fill="#CC0066"/>
<path d="M33.1575 32.9651H19.881C18.7024 32.9651 17.7461 32.0088 17.7461 30.8302V9.18081C17.7461 8.00216 18.7024 7.0459 19.881 7.0459H33.1575C45.7557 7.0459 47.6349 15.1519 47.6349 19.9777C47.6349 28.3506 42.4866 32.9651 33.1575 32.9651ZM19.881 7.75754C19.0915 7.75754 18.4577 8.39134 18.4577 9.18081V30.8302C18.4577 31.6197 19.0915 32.2535 19.881 32.2535H33.1575C42.0308 32.2535 46.9233 27.8947 46.9233 19.9777C46.9233 9.3476 38.2947 7.75754 33.1575 7.75754H19.881V7.75754Z" fill="black"/>
<path d="M28.7772 17.433C29.0663 17.433 29.3331 17.4775 29.5889 17.5664C29.8446 17.6554 30.0559 17.7999 30.2449 17.9778C30.4228 18.1669 30.5674 18.4004 30.6786 18.6672C30.7786 18.9452 30.8342 19.2677 30.8342 19.6457C30.8342 19.9793 30.7898 20.2795 30.7119 20.5575C30.623 20.8355 30.5007 21.0801 30.3339 21.2803C30.1671 21.4804 29.9558 21.6361 29.7001 21.7584C29.4443 21.8696 29.1441 21.9363 28.7994 21.9363H26.8535V17.4219H28.7772V17.433ZM28.7104 21.1135C28.855 21.1135 28.9884 21.0913 29.133 21.0468C29.2664 21.0023 29.3887 20.9245 29.4888 20.8133C29.5889 20.7021 29.6778 20.5687 29.7445 20.3907C29.8113 20.2128 29.8446 20.0127 29.8446 19.7569C29.8446 19.5346 29.8224 19.3233 29.7779 19.1454C29.7334 18.9675 29.6556 18.8007 29.5555 18.6784C29.4554 18.556 29.322 18.4449 29.1552 18.3781C28.9884 18.3114 28.7883 18.2781 28.5437 18.2781H27.832V21.1246H28.7104V21.1135Z" fill="white"/>
<path d="M34.8462 17.433V18.2669H32.4667V19.2343H34.6572V20.0016H32.4667V21.1024H34.9018V21.9363H31.4771V17.4219H34.8462V17.433Z" fill="white"/>
<path d="M38.25 17.4316L39.9401 21.9461H38.906L38.5613 20.9454H36.8712L36.5154 21.9461H35.5146L37.2159 17.4316H38.25V17.4316ZM38.3056 20.2004L37.7385 18.5436H37.7274L37.1381 20.2004H38.3056Z" fill="white"/>
<path d="M41.5536 17.4316V21.1121H43.7552V21.9461H40.564V17.4316H41.5536V17.4316Z" fill="white"/>
<path d="M22.1721 21.767C23.3205 21.767 24.2514 20.8361 24.2514 19.6877C24.2514 18.5393 23.3205 17.6084 22.1721 17.6084C21.0237 17.6084 20.0928 18.5393 20.0928 19.6877C20.0928 20.8361 21.0237 21.767 22.1721 21.767Z" fill="black"/>
<path d="M23.7381 30.1509C21.9923 30.1509 20.5913 28.7387 20.5913 27.0041V24.5467C20.5913 23.6794 21.2918 22.9678 22.1703 22.9678C23.0376 22.9678 23.7492 23.6683 23.7492 24.5467V30.1509H23.7381Z" fill="black"/>
</g>
</g>
<defs>
<clipPath id="clip0">
<rect width="64" height="40" fill="white" transform="translate(0.666504)"/>
</clipPath>
<clipPath id="clip1">
<rect width="34.0363" height="30" fill="white" transform="translate(15.6665 5)"/>
</clipPath>
</defs>
</svg>

<svg width="36" height="22" viewBox="0 0 65 40" fill="none" xmlns="http://www.w3.org/2000/svg"><g clip-path="url(#clip0)"><path d="M59.333 0H6C3.054 0 .667 2.442.667 5.455v29.09C.667 37.558 3.054 40 6 40h53.333c2.946 0 5.334-2.442 5.334-5.455V5.455C64.666 2.442 62.279 0 59.332 0z" fill="#C06"/><g clip-path="url(#clip1)"><path d="M15.666 7.224v25.552A2.23 2.23 0 0017.89 35h15.267c11.542 0 16.546-6.46 16.546-15.033C49.703 11.438 44.699 5 33.157 5H17.89a2.23 2.23 0 00-2.224 2.224z" fill="#fff"/><path d="M25.886 11.27v18.882h8.217c7.462 0 10.697-4.215 10.697-10.175 0-5.704-3.235-10.13-10.697-10.13H27.31c-.789 0-1.423.646-1.423 1.424z" fill="#C06"/><path d="M33.157 32.965H19.881a2.136 2.136 0 01-2.135-2.135V9.18c0-1.178.956-2.134 2.135-2.134h13.276c12.599 0 14.478 8.106 14.478 12.932 0 8.373-5.148 12.987-14.477 12.987zM19.881 7.758c-.79 0-1.423.633-1.423 1.423v21.65a1.42 1.42 0 001.423 1.423h13.276c8.874 0 13.766-4.36 13.766-12.276 0-10.63-8.628-12.22-13.766-12.22H19.881z" fill="#000"/><path d="M28.777 17.433c.29 0 .556.044.812.133.256.09.467.234.656.412.178.189.322.422.434.69.1.277.155.6.155.978 0 .333-.044.633-.122.912a2.128 2.128 0 01-.378.722c-.167.2-.378.356-.634.478a2.242 2.242 0 01-.9.178h-1.947v-4.514h1.924v.011zm-.067 3.68c.145 0 .278-.022.423-.066a.83.83 0 00.356-.234c.1-.11.189-.244.255-.422.067-.178.1-.378.1-.634a2.61 2.61 0 00-.066-.612 1.216 1.216 0 00-.223-.467 1.003 1.003 0 00-.4-.3 1.637 1.637 0 00-.611-.1h-.712v2.847h.878v-.012zm6.136-3.68v.834h-2.38v.967h2.191v.768h-2.19v1.1h2.435v.834h-3.425v-4.514h3.37v.011zm3.404-.001l1.69 4.514h-1.034l-.345-1h-1.69l-.356 1h-1l1.7-4.514h1.035zm.056 2.768l-.567-1.656h-.012l-.589 1.656h1.168zm3.248-2.768v3.68h2.201v.834h-3.191v-4.514h.99z" fill="#fff"/><path d="M22.172 21.767a2.08 2.08 0 100-4.159 2.08 2.08 0 000 4.159zm1.566 8.383a3.144 3.144 0 01-3.147-3.146v-2.457a1.578 1.578 0 113.158 0v5.604h-.01z" fill="#000"/></g></g><defs><clipPath id="clip0"><path fill="#fff" transform="translate(.667)" d="M0 0h64v40H0z"/></clipPath><clipPath id="clip1"><path fill="#fff" transform="translate(15.666 5)" d="M0 0h34.036v30H0z"/></clipPath></defs></svg>
